X: 161000
T: Paddy Mouse
S: Darley & McCall Collection
Z: B.Black (arr.)
L: 1/8
M: 12/8
R: slide
K: G
A|B2B c2B A2B E2c|B2A G2E DED DFA|
B2B c2B A2B E2c|Bcd cAF|G3-G2 :|
d|g2g f2d efe d2B|G2A BAB d3-d2 e|
g2g f2d efe dcA|GAB A2F G3-G2 :|
